assets/img/braze_icons/arrow-down.svg

<svg fill="none" height="24" viewBox="0 0 24 24" width="24" xmlns="http://www.w3.org/2000/svg"><path d="m13 5c0-.55228-.4477-1-1-1s-1 .44772-1 1v11.5858l-5.29289-5.2929c-.39053-.3905-1.02369-.3905-1.41422 0-.39052.3905-.39052 1.0237 0 1.4142l7.00001 7c.3905.3905 1.0237.3905 1.4142 0l7-7c.3905-.3905.3905-1.0237 0-1.4142s-1.0237-.3905-1.4142 0l-5.2929 5.2929z" fill="#801ed7"/></svg>

<svg width="24" height="24" viewBox="0 0 24 24" fill="none" xmlns="http://www.w3.org/2000/svg">
<path d="M13 5C13 4.44772 12.5523 4 12 4C11.4477 4 11 4.44772 11 5V16.5858L5.70711 11.2929C5.31658 10.9024 4.68342 10.9024 4.29289 11.2929C3.90237 11.6834 3.90237 12.3166 4.29289 12.7071L11.2929 19.7071C11.6834 20.0976 12.3166 20.0976 12.7071 19.7071L19.7071 12.7071C20.0976 12.3166 20.0976 11.6834 19.7071 11.2929C19.3166 10.9024 18.6834 10.9024 18.2929 11.2929L13 16.5858V5Z" fill="#801ED7"/>
</svg>
